packages/assets/static/images/icons/bold/baby-carriage--bold.svg

<svg width="24" height="24" viewBox="0 0 24 24" xmlns="http://www.w3.org/2000/svg">
<path d="M14.771 1.875H14.021C13.5237 1.875 13.0468 2.07254 12.6952 2.42417C12.3435 2.77581 12.146 3.25272 12.146 3.75V8.625H5.2235C4.98319 7.86427 4.50694 7.19981 3.86373 6.72785C3.22053 6.2559 2.44377 6.00097 1.646 6C1.34763 6 1.06148 6.11853 0.850501 6.3295C0.639523 6.54048 0.520996 6.82663 0.520996 7.125C0.520996 7.42337 0.639523 7.70952 0.850501 7.9205C1.06148 8.13147 1.34763 8.25 1.646 8.25C2.04382 8.25 2.42535 8.40804 2.70666 8.68934C2.98796 8.97064 3.146 9.35218 3.146 9.75C3.14823 11.8379 3.97863 13.8396 5.455 15.316C6.93136 16.7924 8.9331 17.6228 11.021 17.625H14.771C16.8596 17.625 18.8626 16.7953 20.3395 15.3185C21.8163 13.8416 22.646 11.8386 22.646 9.75C22.646 7.66142 21.8163 5.65838 20.3395 4.18153C18.8626 2.70469 16.8596 1.875 14.771 1.875ZM19.2766 6.38625C19.7738 7.04869 20.1174 7.8134 20.2826 8.625H16.4782L19.2766 6.38625ZM14.771 4.125C15.7529 4.1252 16.7174 4.38387 17.5676 4.875L14.396 7.40625V4.125H14.771ZM14.771 15.375H11.021C9.72489 15.3733 8.469 14.9248 7.46503 14.1051C6.46105 13.2854 5.77038 12.1446 5.50943 10.875H20.2826C20.0216 12.1446 19.3309 13.2854 18.327 14.1051C17.323 14.9248 16.0671 15.3733 14.771 15.375ZM9.896 20.25C9.896 20.6208 9.78603 20.9834 9.58 21.2917C9.37397 21.6 9.08114 21.8404 8.73853 21.9823C8.39592 22.1242 8.01892 22.1613 7.6552 22.089C7.29149 22.0166 6.95739 21.838 6.69517 21.5758C6.43295 21.3136 6.25437 20.9795 6.18202 20.6158C6.10968 20.2521 6.14681 19.8751 6.28872 19.5325C6.43064 19.1899 6.67096 18.897 6.9793 18.691C7.28764 18.485 7.65016 18.375 8.021 18.375C8.51828 18.375 8.99519 18.5725 9.34682 18.9242C9.69845 19.2758 9.896 19.7527 9.896 20.25ZM19.646 20.25C19.646 20.6208 19.536 20.9834 19.33 21.2917C19.124 21.6 18.8311 21.8404 18.4885 21.9823C18.1459 22.1242 17.7689 22.1613 17.4052 22.089C17.0415 22.0166 16.7074 21.838 16.4452 21.5758C16.1829 21.3136 16.0044 20.9795 15.932 20.6158C15.8597 20.2521 15.8968 19.8751 16.0387 19.5325C16.1806 19.1899 16.421 18.897 16.7293 18.691C17.0376 18.485 17.4002 18.375 17.771 18.375C18.2683 18.375 18.7452 18.5725 19.0968 18.9242C19.4485 19.2758 19.646 19.7527 19.646 20.25Z"/>
</svg>

<svg viewBox="0 0 24 24" xmlns="http://www.w3.org/2000/svg" aria-hidden="true" fill="currentColor"><path d="M14.771 1.875h-.75a1.875 1.875 0 0 0-1.875 1.875v4.875H5.223A3.76 3.76 0 0 0 1.646 6a1.125 1.125 0 0 0 0 2.25 1.5 1.5 0 0 1 1.5 1.5 7.883 7.883 0 0 0 7.875 7.875h3.75a7.875 7.875 0 0 0 0-15.75m4.506 4.511c.497.663.84 1.427 1.006 2.239h-3.805zM14.77 4.125c.982 0 1.946.259 2.797.75l-3.172 2.531V4.125zm0 11.25h-3.75a5.634 5.634 0 0 1-5.512-4.5h14.774a5.635 5.635 0 0 1-5.512 4.5M9.896 20.25a1.875 1.875 0 1 1-3.75 0 1.875 1.875 0 0 1 3.75 0m9.75 0a1.875 1.875 0 1 1-3.75 0 1.875 1.875 0 0 1 3.75 0"/></svg>
